X: 1
T: The Malbay Shuffle
R: reel
M: 4/4
L: 1/8
K: Gmaj
|: d3G AG~GG | EG~GG AGGB | ~d2cB AG~GG |1 DEGB AGAB :|2 DEGB AGGA ||
~B3d eg~gg | egdg eg~g2 | ~B3d eggd |egdB AGEG |
~B3d eg~gg | egdg eggd | egdB cABG | DEGB AGAB ||


Tune 1060	Setting 25865

